X:1
T:Alexandra West
R:Jig
C:Anselm Lingnau
S:29 May 1995
G:SSL 1
H:Dedicated to Alexandra West from Glasgow,
whose lively spirit and sense of humour
have been a great inspiration for this dance tune in the modern style.
M:6/8
K:C
E:9
EF^F|"C"G2 e d2 c|G3 "G7"EF^F|"C"G2 e d2 c|"Dm"f3 A2 c|
"G"B2 d dB^A|"Am"=A2 c A2 ^G|"G"=G2 G BA^G|=G3 "G"EF^F|
"C"G2 e d2 c|G3 "G7"EF^F|"C"G2 e d2 c|"F"a3 c'b_b|
a2 a fga|"Em"g2 g "Am"e2 g|"Dm"agf "G7"efd|"C"c3||
cB_B|"F"A2 f f2 d|"C"e3 cB_B|"F"A2 a c'ba|"C"g3 "C7"c'b_b|
"F"a2 a "Dm"fga|"C"g2 g e2 g|"Dm"f2 d' d'2 c'|"G"b3 g^fg|
"F"a2 a c'ba|"C"g3 "C7"cB_B|"F"A2 A "Dm"FGA|"C"G3 "G"EF^F|
"C"G2 e d2 c|"Am"c'b_b "F"agf|"Dm"agf "G7"efd|"C"c3|]
